X: 38
T: No_44_It_Is_Raining.krn
N: Derived from No_44_It_Is_Raining.krn
%%abc-version 2.0
%%abcx-abcm2ps-target-version 5.9.1 (29 Sep 2008)
%%abc-creator hum2abc beta
%%abcx-conversion-date 2019/03/15 08:25:35
%%humdrum-veritas 1509382391
%%humdrum-veritas-data 4056789001
%%linebreak <none>
%%barnumbers 0
L: 1/8
M: 3/4
K: Bb clef=bass
[K:clef=bass][M:3/4]B,2B,2B,3/G,/ | 
B,2B,2B, z ]|:  
[M:2/4]B,2B,/G,3/ | 
B,3B,/G,/ | 
F,2F,/D,3/ | 
G,2F,F,/D,/ | 
[M:3/4]B,,2B,,B,, z D, | 
[M:2/4]F,2F,/D,3/ | 
G,2F,F,/D,/ | 
[M:3/4]B,,2B,,B,,- B,,D, | 
F,2F,/D,/B,, B,, z | 
[M:2/4]B,,D, F,F,/D,/ | 
F,/D,/B,, B,,B,, | 
D,/B,,3/B,,2 | 
z B,,B,,2 :|]  
z B,, B,,3/B,,/ | 
F,2F,/D,3/ | 
G,2F,F,/D,/ | 
[M:3/4]B,,2B,,B,, z D, | 
[M:3/8]F,3/D,/F,/D,/ | 
B,,2z | 
[M:2/4]B,,D, F,F,/D,/ | 
F,/D,/B,, B,,B,, | 
D,/B,,3/B,,2 :|]  
[M:3/4]z4F,B,, | 
[M:2/4]B,2B,/G,3/ | 
B,3B,/G,/ | 
F,2F,/D,3/ | 
G,2F,F,/D,/ | 
[M:3/4]B,,2B,,B,, z D, | 
F,2F,F,/D,/ B,, z | 
B,,D, F,F, D,/B,,/B,, | 
D,F, D,/B,,3/ B,, z | 
[M:2/4]B,,D, B,,G,, | 
B,,B,, B,,B,, | 
[M:3/4]B,,F, F,/D,3/ B,, z | 
D,/B,,/B,, D,/B,,/B,,3//B,,// D,F, | 
B,,B,, B,,B,, B,,B,, |]  



